;FLAVOR:Marlin
;TIME:1204
;Filament used: 0.714795m
;Layer height: 0.22
;MINX:104.76
;MINY:102.322
;MINZ:0.2
;MAXX:129.356
;MAXY:132.345
;MAXZ:12.96
;Generated with Cura_SteamEngine 4.12.1
M140 S60
M105
M190 S60
M104 S200
M105
M109 S200
M82 ;absolute extrusion mode
; Ender 3 Custom Start G-code
G92 E0 ; Reset Extruder
G28 ; Home all axes
G1 Z2.0 F3000 ; Move Z Axis up little to prevent scratching of Heat Bed
G1 X0.1 Y20 Z0.3 F5000.0 ; Move to start position
G1 X0.1 Y200.0 Z0.3 F1500.0 E15 ; Draw the first line
G1 X0.4 Y200.0 Z0.3 F5000.0 ; Move to side a little
G1 X0.4 Y20 Z0.3 F1500.0 E30 ; Draw the second line
G92 E0 ; Reset Extruder
G1 Z2.0 F3000 ; Move Z Axis up little to prevent scratching of Heat Bed
G1 X5 Y20 Z0.3 F5000.0 ; Move over to prevent blob squish
G92 E0
G92 E0
G1 F3000 E-5
;LAYER_COUNT:59
;LAYER:0
M106 S255
;MESH:PencilClip v9.stl(1)
G0 F9000 X113.002 Y129.835 Z0.2
;TYPE:WALL-INNER
G1 F3000 E0
G1 F3600 X112.941 Y129.845 E0.00206
G1 X113.046 Y130.567 E0.02632
G1 X113.041 Y130.949 E0.03903
G1 X113.098 Y131.267 E0.04977
G1 X113.106 Y131.406 E0.0544
G1 X113.046 Y131.32
G1 X112.861 Y131.022 E0.05875
G1 X112.691 Y130.719 E0.06711
G1 X112.534 Y130.406 E0.07875
G1 X112.381 Y130.067 E0.09112
G1 X112.243 Y129.718 E0.10361
G1 X112.121 Y129.366 E0.116
G1 X112.018 Y129.029 E0.12772
G1 X111.919 Y128.64 E0.14107
G1 X111.838 Y128.268 E0.15373
G1 X111.773 Y127.891 E0.16646
G1 X111.765 Y127.826 E0.16863
G1 X111.842 Y127.48 E0.18042
G1 X111.955 Y127.114 E0.19316
G1 X112.116 Y126.705 E0.20778
G1 X112.29 Y126.345 E0.22108
G1 X112.504 Y125.98 E0.23515
G1 X112.742 Y125.635 E0.2491
G1 X113.022 Y125.292 E0.26382
G1 X113.234 Y125.016 E0.2754
G1 X113.428 Y124.694 E0.2879
G1 X113.585 Y124.351 E0.30045
G1 X113.699 Y123.991 E0.31301
G1 X113.771 Y123.626 E0.32538
G1 X113.802 Y123.217 E0.33902
G1 X113.706 Y122.618 E0.3592
G1 X113.417 Y122.084 E0.3794
G1 X113.147 Y121.794 E0.39257
G1 X113.066 Y121.623 E0.39887
G1 X113.006 Y121.248 E0.4115
G1 X112.764 Y120.727 E0.43061
G1 X112.357 Y120.335 E0.4494
G1 X112.116 Y120.205 E0.45851
G1 X111.411 Y119.853 E0.48472
G1 X110.735 Y119.46 E0.51072
G1 X110.098 Y119.031 E0.53627
G1 X109.499 Y118.57 E0.56141
G1 X108.91 Y118.052 E0.5875
G1 X108.373 Y117.515 E0.61275
G1 X107.871 Y116.944 E0.63804
G1 X107.404 Y116.336 E0.66354
G1 X106.978 Y115.703 E0.68892
G1 X106.584 Y115.027 E0.71494
G1 X106.248 Y114.354 E0.73996
G1 X105.949 Y113.641 E0.76568
G1 X105.699 Y112.92 E0.79106
G1 X105.495 Y112.184 E0.81646
G1 X105.334 Y111.415 E0.84259
G1 X105.228 Y110.662 E0.86788
G1 X105.171 Y109.914 E0.89283
G1 X105.16 Y109.137 E0.91868
G1 X105.2 Y108.379 E0.94393
G1 X105.287 Y107.637 E0.96877
G1 X105.431 Y106.845 E0.99555
G1 X105.611 Y106.128 E1.02013
G1 X105.853 Y105.372 E1.04654
G1 X106.122 Y104.688 E1.07098
G1 X106.458 Y103.971 E1.09732
G1 X106.822 Y103.311 E1.12239
G1 X107.12 Y102.845 E1.14078
G1 X107.692 Y103.99 E1.18336
G1 X107.746 Y104.182 E1.18999
G1 X107.728 Y104.334 E1.19508
G1 X107.591 Y104.613 E1.20542
G1 X107.271 Y105.305 E1.23078
G1 X107.002 Y106.029 E1.25646
G1 X106.785 Y106.768 E1.28208
G1 X106.622 Y107.522 E1.30774
G1 X106.515 Y108.286 E1.3334
G1 X106.463 Y109.056 E1.35907
G1 X106.467 Y109.828 E1.38474
G1 X106.528 Y110.597 E1.4104
G1 X106.644 Y111.36 E1.43607
G1 X106.816 Y112.113 E1.46176
G1 X107.043 Y112.851 E1.48744
G1 X107.32 Y113.569 E1.51304
G1 X107.652 Y114.267 E1.53874
G1 X108.033 Y114.938 E1.56441
G1 X108.46 Y115.58 E1.59005
G1 X108.934 Y116.189 E1.61572
G1 X109.451 Y116.762 E1.64139
G1 X110.009 Y117.295 E1.66706
G1 X110.602 Y117.787 E1.69268
G1 X111.232 Y118.235 E1.7184
G1 X111.892 Y118.636 E1.74408
G1 X112.578 Y118.986 E1.7697
G1 X113.29 Y119.287 E1.79541
G1 X114.02 Y119.534 E1.82104
G1 X114.766 Y119.729 E1.84668
G1 X115.525 Y119.868 E1.87235
G1 X116.292 Y119.952 E1.89801
G1 X117.058 Y119.98 E1.92351
G1 X117.835 Y119.952 E1.94937
G1 X118.602 Y119.867 E1.97503
G1 X119.355 Y119.728 E2.0005
G1 X120.101 Y119.533 E2.02615
G1 X120.833 Y119.285 E2.05185
G1 X121.543 Y118.984 E2.0775
G1 X122.23 Y118.634 E2.10314
G1 X122.889 Y118.232 E2.12882
G1 X123.518 Y117.784 E2.1545
G1 X124.112 Y117.292 E2.18016
G1 X124.669 Y116.758 E2.20582
G1 X125.185 Y116.185 E2.23147
G1 X125.659 Y115.576 E2.25714
G1 X126.088 Y114.934 E2.28282
G1 X126.467 Y114.261 E2.30851
G1 X126.798 Y113.564 E2.33417
G1 X127.076 Y112.845 E2.35981
G1 X127.301 Y112.107 E2.38547
G1 X127.473 Y111.355 E2.41113
G1 X127.59 Y110.592 E2.4368
G1 X127.649 Y109.821 E2.46252
G1 X127.653 Y109.051 E2.48813
G1 X127.601 Y108.281 E2.5138
G1 X127.494 Y107.517 E2.53946
G1 X127.331 Y106.762 E2.56515
G1 X127.113 Y106.023 E2.59078
G1 X126.843 Y105.3 E2.61645
G1 X126.523 Y104.606 E2.64186
G1 X126.39 Y104.34 E2.65176
G1 X126.371 Y104.176 E2.65725
G1 X126.427 Y103.983 E2.66393
G1 X126.996 Y102.843 E2.70631
G1 X127.294 Y103.311 E2.72476
G1 X127.67 Y103.995 E2.75072
G1 X127.994 Y104.687 E2.77614
G1 X128.265 Y105.378 E2.80082
G1 X128.507 Y106.134 E2.82722
G1 X128.686 Y106.851 E2.8518
G1 X128.828 Y107.63 E2.87814
G1 X128.917 Y108.393 E2.90369
G1 X128.956 Y109.143 E2.92867
G1 X128.945 Y109.917 E2.95441
G1 X128.887 Y110.677 E2.97977
G1 X128.779 Y111.431 E3.0051
G1 X128.621 Y112.194 E3.03102
G1 X128.419 Y112.92 E3.05608
G1 X128.165 Y113.65 E3.08179
G1 X127.869 Y114.351 E3.1071
G1 X127.525 Y115.039 E3.13268
G1 X127.14 Y115.702 E3.15818
G1 X126.701 Y116.352 E3.18427
G1 X126.241 Y116.949 E3.20933
G1 X125.743 Y117.515 E3.23441
G1 X125.199 Y118.059 E3.26
G1 X124.613 Y118.574 E3.28594
G1 X124.013 Y119.035 E3.31111
G1 X123.377 Y119.463 E3.33661
G1 X122.701 Y119.856 E3.36262
G1 X121.972 Y120.219 E3.3897
G1 X121.536 Y120.514 E3.40721
G1 X121.196 Y120.998 E3.42688
G1 X121.014 Y121.714 E3.45146
G1 X120.865 Y121.91 E3.45964
G1 X120.531 Y122.339 E3.47773
G1 X120.339 Y122.915 E3.49792
G1 X120.315 Y123.246 E3.50896
G1 X120.347 Y123.631 E3.52181
G1 X120.419 Y124 E3.53431
G1 X120.535 Y124.361 E3.54692
G1 X120.692 Y124.703 E3.55944
G1 X120.885 Y125.023 E3.57187
G1 X121.103 Y125.301 E3.58362
G1 X121.382 Y125.647 E3.5984
G1 X121.62 Y125.992 E3.61234
G1 X121.827 Y126.348 E3.62604
G1 X122.007 Y126.72 E3.63979
G1 X122.161 Y127.116 E3.65392
G1 X122.282 Y127.512 E3.66769
G1 X122.352 Y127.829 E3.67849
G1 X122.344 Y127.891 E3.68057
G1 X122.279 Y128.267 E3.69326
G1 X122.196 Y128.645 E3.70613
G1 X122.096 Y129.037 E3.71959
G1 X121.993 Y129.372 E3.73124
G1 X121.871 Y129.723 E3.7436
G1 X121.729 Y130.08 E3.75638
G1 X121.589 Y130.395 E3.76785
G1 X121.424 Y130.723 E3.78006
G1 X121.247 Y131.038 E3.79207
G1 X121.071 Y131.32 E3.80313
G1 X121.01 Y131.409 E3.80672
G1 X121.019 Y131.258 E3.808
G1 X121.078 Y130.934 E3.81192
G1 X121.064 Y130.514 E3.82589
G1 X121.157 Y129.241 E3.86835
G1 X121.137 Y128.762 E3.88429
G1 X121.06 Y128.288 E3.90026
G1 X120.93 Y127.826 E3.91623
G1 X120.749 Y127.382 E3.93217
G1 X120.516 Y126.962 E3.94815
G1 X120.237 Y126.572 E3.9641
G1 X119.916 Y126.217 E3.98002
G1 X119.555 Y125.9 E3.996
G1 X119.16 Y125.628 E4.01195
G1 X119.078 Y125.584 E4.01504
G1 X119.078 Y123.519 E4.08373
G1 X119.048 Y123.191 E4.09468
G1 X118.954 Y122.85 E4.10644
G1 X118.804 Y122.534 E4.11808
G1 X118.604 Y122.247 E4.12971
G1 X118.351 Y121.995 E4.14159
G1 X118.061 Y121.797 E4.15327
G1 X117.746 Y121.65 E4.16483
G1 X117.41 Y121.56 E4.1764
G1 X117.058 Y121.528 E4.18816
G1 X116.699 Y121.561 E4.20015
G1 X116.358 Y121.655 E4.21191
G1 X116.041 Y121.805 E4.22358
G1 X115.754 Y122.007 E4.23525
G1 X115.506 Y122.257 E4.24696
G1 X115.305 Y122.546 E4.25867
G1 X115.157 Y122.863 E4.27031
G1 X115.066 Y123.2 E4.28192
G1 X115.039 Y123.526 E4.2928
G1 X115.039 Y125.584 E4.36125
G1 X114.951 Y125.631 E4.36456
G1 X114.556 Y125.904 E4.38053
G1 X114.196 Y126.221 E4.39649
G1 X113.874 Y126.578 E4.41248
G1 X113.597 Y126.969 E4.42842
G1 X113.365 Y127.388 E4.44435
G1 X113.183 Y127.832 E4.46031
G1 X113.054 Y128.295 E4.47629
G1 X112.98 Y128.768 E4.49221
G1 X112.959 Y129.254 E4.50839
G1 X113.002 Y129.835 E4.52777
G0 F9000 X113.393 Y130.173
;TYPE:WALL-OUTER
G1 F3600 X113.446 Y130.54 E4.5401
G1 X113.441 Y130.916 E4.55261
G1 X113.495 Y131.213 E4.56265
G1 X113.511 Y131.489 E4.57185
G1 X113.492 Y131.744 E4.58035
G1 X113.421 Y132.101 E4.59246
G1 X113.343 Y132.34 E4.60082
G1 X113.325 Y132.344 E4.60143
G1 X113.139 Y132.125 E4.61099
G1 X112.917 Y131.836 E4.62311
G1 X112.717 Y131.548 E4.63477
G1 X112.519 Y131.23 E4.64723
G1 X112.342 Y130.915 E4.65925
G1 X112.169 Y130.571 E4.67206
G1 X112.016 Y130.231 E4.68446
G1 X111.871 Y129.865 E4.69755
G1 X111.743 Y129.497 E4.71051
G1 X111.63 Y129.128 E4.72335
G1 X111.531 Y128.739 E4.7367
G1 X111.447 Y128.353 E4.74983
G1 X111.378 Y127.955 E4.76327
G1 X111.359 Y127.81 E4.76813
G1 X111.451 Y127.394 E4.7823
G1 X111.579 Y126.976 E4.79684
G1 X111.749 Y126.546 E4.81222
G1 X111.937 Y126.157 E4.82659
G1 X112.166 Y125.766 E4.84166
G1 X112.421 Y125.396 E4.85661
G1 X112.708 Y125.044 E4.87172
G1 X112.903 Y124.79 E4.88237
G1 X113.074 Y124.507 E4.89336
G1 X113.211 Y124.207 E4.90433
G1 X113.311 Y123.892 E4.91533
G1 X113.374 Y123.572 E4.92617
G1 X113.4 Y123.234 E4.93745
G1 X113.322 Y122.749 E4.95379
G1 X113.089 Y122.319 E4.97005
G1 X112.812 Y122.02 E4.98361
G1 X112.68 Y121.745 E4.99376
G1 X112.62 Y121.366 E5.00652
G1 X112.433 Y120.963 E5.02129
G1 X112.119 Y120.661 E5.03578
G1 X111.932 Y120.56 E5.04285
G1 X111.216 Y120.203 E5.06946
G1 X110.525 Y119.801 E5.09605
G1 X109.863 Y119.355 E5.1226
G1 X109.241 Y118.876 E5.14871
G1 X108.641 Y118.349 E5.17527
G1 X108.09 Y117.798 E5.20119
G1 X107.558 Y117.193 E5.22799
G1 X107.083 Y116.575 E5.25391
G1 X106.637 Y115.913 E5.28046
G1 X106.235 Y115.223 E5.30702
G1 X105.882 Y114.515 E5.33333
G1 X105.577 Y113.79 E5.35949
G1 X105.315 Y113.035 E5.38607
G1 X105.106 Y112.28 E5.41213
G1 X104.942 Y111.497 E5.43874
G1 X104.831 Y110.713 E5.46507
G1 X104.771 Y109.935 E5.49103
G1 X104.76 Y109.143 E5.51737
G1 X104.801 Y108.352 E5.54372
G1 X104.893 Y107.565 E5.57007
G1 X105.037 Y106.773 E5.59684
G1 X105.227 Y106.017 E5.62277
G1 X105.472 Y105.25 E5.64955
G1 X105.756 Y104.526 E5.67542
G1 X106.098 Y103.797 E5.7022
G1 X106.474 Y103.114 E5.72813
G1 X106.895 Y102.455 E5.75414
G1 X107.013 Y102.366 E5.75906
G1 X107.159 Y102.343 E5.76397
G1 X107.353 Y102.442 E5.77122
G1 X107.404 Y102.518 E5.77426
G1 X108.067 Y103.846 E5.82363
G1 X108.152 Y104.151 E5.83416
G1 X108.117 Y104.451 E5.84421
G1 X107.952 Y104.785 E5.8566
G1 X107.641 Y105.459 E5.88128
G1 X107.382 Y106.155 E5.90598
G1 X107.173 Y106.867 E5.93066
G1 X107.016 Y107.592 E5.95534
G1 X106.913 Y108.327 E5.98002
G1 X106.863 Y109.068 E6.00472
G1 X106.867 Y109.811 E6.02944
G1 X106.926 Y110.551 E6.05413
G1 X107.037 Y111.285 E6.07882
G1 X107.203 Y112.01 E6.10356
G1 X107.421 Y112.72 E6.12826
G1 X107.688 Y113.411 E6.1529
G1 X108.007 Y114.082 E6.17761
G1 X108.374 Y114.728 E6.20232
G1 X108.785 Y115.346 E6.22701
G1 X109.241 Y115.932 E6.2517
G1 X109.738 Y116.483 E6.27638
G1 X110.275 Y116.996 E6.30108
G1 X110.846 Y117.47 E6.32576
G1 X111.452 Y117.901 E6.3505
G1 X112.087 Y118.286 E6.3752
G1 X112.747 Y118.623 E6.39984
G1 X113.432 Y118.913 E6.42459
G1 X114.135 Y119.151 E6.44927
G1 X114.853 Y119.338 E6.47395
G1 X115.583 Y119.472 E6.49863
G1 X116.321 Y119.553 E6.52333
G1 X117.058 Y119.58 E6.54786
G1 X117.806 Y119.553 E6.57275
G1 X118.543 Y119.471 E6.59742
G1 X119.268 Y119.337 E6.62194
G1 X119.986 Y119.15 E6.64661
G1 X120.69 Y118.911 E6.67134
G1 X121.374 Y118.621 E6.69605
G1 X122.035 Y118.284 E6.72073
G1 X122.669 Y117.898 E6.74542
G1 X123.274 Y117.467 E6.77012
G1 X123.846 Y116.993 E6.79483
G1 X124.382 Y116.479 E6.81953
G1 X124.878 Y115.928 E6.84419
G1 X125.334 Y115.342 E6.86889
G1 X125.747 Y114.724 E6.89361
G1 X126.112 Y114.077 E6.91832
G1 X126.43 Y113.406 E6.94301
G1 X126.698 Y112.714 E6.96769
G1 X126.914 Y112.004 E6.99238
G1 X127.08 Y111.28 E7.01708
G1 X127.192 Y110.546 E7.04178
G1 X127.249 Y109.805 E7.0665
G1 X127.253 Y109.063 E7.09118
G1 X127.203 Y108.322 E7.11588
G1 X127.1 Y107.587 E7.14056
G1 X126.943 Y106.861 E7.16527
G1 X126.733 Y106.15 E7.18993
G1 X126.473 Y105.454 E7.21464
G1 X126.162 Y104.779 E7.23936
G1 X126.001 Y104.456 E7.25136
G1 X125.965 Y104.142 E7.26187
G1 X126.054 Y103.834 E7.27254
G1 X126.712 Y102.517 E7.3215
G1 X126.822 Y102.392 E7.32704
G1 X127.035 Y102.345 E7.3343
G1 X127.223 Y102.455 E7.34154
G1 X127.645 Y103.118 E7.36768
G1 X128.021 Y103.802 E7.39364
G1 X128.362 Y104.531 E7.42041
G1 X128.646 Y105.256 E7.44631
G1 X128.891 Y106.023 E7.47309
G1 X129.08 Y106.779 E7.499
G1 X129.222 Y107.558 E7.52534
G1 X129.315 Y108.358 E7.55213
G1 X129.356 Y109.149 E7.57847
G1 X129.345 Y109.938 E7.60472
G1 X129.285 Y110.719 E7.63077
G1 X129.173 Y111.503 E7.65711
G1 X129.012 Y112.278 E7.68344
G1 X128.797 Y113.051 E7.71012
G1 X128.538 Y113.796 E7.73636
G1 X128.233 Y114.519 E7.76246
G1 X127.878 Y115.228 E7.78883
G1 X127.476 Y115.919 E7.81542
G1 X127.03 Y116.58 E7.84194
G1 X126.554 Y117.198 E7.86788
G1 X126.026 Y117.798 E7.89447
G1 X125.471 Y118.353 E7.92057
G1 X124.871 Y118.88 E7.94713
G1 X124.248 Y119.359 E7.97327
G1 X123.587 Y119.804 E7.99977
G1 X122.895 Y120.206 E8.02639
G1 X122.174 Y120.565 E8.05318
G1 X121.821 Y120.804 E8.06736
G1 X121.566 Y121.167 E8.08211
G1 X121.466 Y121.564 E8.09573
G1 X121.381 Y121.892 E8.107
G1 X121.181 Y122.155 E8.11799
G1 X120.889 Y122.531 E8.13382
G1 X120.734 Y122.994 E8.15006
G1 X120.716 Y123.244 E8.1584
G1 X120.744 Y123.576 E8.16948
G1 X120.807 Y123.9 E8.18046
G1 X120.909 Y124.216 E8.1915
G1 X121.046 Y124.516 E8.20247
G1 X121.215 Y124.795 E8.21332
G1 X121.416 Y125.052 E8.22417
G1 X121.703 Y125.408 E8.23938
G1 X121.961 Y125.782 E8.25449
G1 X122.179 Y126.157 E8.26892
G1 X122.376 Y126.565 E8.28399
G1 X122.541 Y126.988 E8.29909
G1 X122.665 Y127.395 E8.31324
G1 X122.758 Y127.812 E8.32745
G1 X122.738 Y127.959 E8.33239
G1 X122.67 Y128.353 E8.34569
G1 X122.584 Y128.744 E8.359
G1 X122.484 Y129.136 E8.37246
G1 X122.371 Y129.503 E8.38523
G1 X122.243 Y129.871 E8.39819
G1 X122.101 Y130.228 E8.41097
G1 X121.946 Y130.575 E8.42361
G1 X121.773 Y130.919 E8.43641
G1 X121.596 Y131.234 E8.44843
G1 X121.4 Y131.548 E8.46074
G1 X121.198 Y131.84 E8.47255
G1 X120.981 Y132.121 E8.48436
G1 X120.791 Y132.344 E8.49411
G1 X120.74 Y132.27 E8.49709
G1 X120.695 Y132.101 E8.50291
G1 X120.623 Y131.735 E8.51532
G1 X120.605 Y131.482 E8.52375
G1 X120.621 Y131.211 E8.53278
G1 X120.677 Y130.905 E8.54313
G1 X120.663 Y130.508 E8.55634
G1 X120.756 Y129.235 E8.5988
G1 X120.738 Y128.802 E8.61321
G1 X120.669 Y128.374 E8.62763
G1 X120.551 Y127.956 E8.64207
G1 X120.388 Y127.555 E8.65647
G1 X120.177 Y127.176 E8.6709
G1 X119.925 Y126.823 E8.68532
G1 X119.635 Y126.502 E8.69971
G1 X119.309 Y126.216 E8.71414
G1 X118.951 Y125.97 E8.72858
G1 X118.678 Y125.823 E8.7389
G1 X118.678 Y123.537 E8.81493
G1 X118.653 Y123.263 E8.82408
G1 X118.578 Y122.99 E8.8335
G1 X118.457 Y122.736 E8.84285
G1 X118.296 Y122.505 E8.85222
G1 X118.095 Y122.305 E8.86165
G1 X117.862 Y122.146 E8.87103
G1 X117.608 Y122.027 E8.88036
G1 X117.34 Y121.955 E8.88959
G1 X117.058 Y121.93 E8.89901
G1 X116.771 Y121.956 E8.90859
G1 X116.498 Y122.031 E8.91801
G1 X116.243 Y122.152 E8.9274
G1 X116.013 Y122.314 E8.93675
G1 X115.814 Y122.514 E8.94614
G1 X115.653 Y122.746 E8.95553
G1 X115.534 Y123.001 E8.96489
G1 X115.462 Y123.269 E8.97412
G1 X115.439 Y123.543 E8.98326
G1 X115.439 Y125.824 E9.05913
G1 X115.16 Y125.973 E9.06965
G1 X114.803 Y126.22 E9.08409
G1 X114.477 Y126.506 E9.09851
G1 X114.187 Y126.828 E9.11293
G1 X113.936 Y127.182 E9.12736
G1 X113.726 Y127.561 E9.14177
G1 X113.562 Y127.962 E9.15618
G1 X113.446 Y128.38 E9.17061
G1 X113.379 Y128.808 E9.18502
G1 X113.36 Y129.248 E9.19967
G1 X113.428 Y130.167 E9.23032
G1 X113.393 Y130.173 E9.2315
G0 F9000 X113.095 Y130.215
G0 X112.318 Y129.599
G0 X112.583 Y129.508
;TYPE:SKIN
